X: 44
T: No_39_Lame_Dance_Song_(a).krn
N: Derived from No_39_Lame_Dance_Song_(a).krn
%%abc-version 2.0
%%abcx-abcm2ps-target-version 5.9.1 (29 Sep 2008)
%%abc-creator hum2abc beta
%%abcx-conversion-date 2019/03/15 08:36:49
%%humdrum-veritas 591555245
%%humdrum-veritas-data 1046753186
%%linebreak <none>
%%barnumbers 0
L: 1/8
M: 2/4
%%staves {1 2}
V: 1 clef=bass
V: 2 clef=bass
K: E
[V:1] [K:clef=bass][M:2/4]E2F/E3/ | 
[V:2] [K:clef=bass][M:2/4]G,,2G,,2 | 
[V:1] !fermata!E2E2 | 
[V:2] G,,2G,,2 | 
[V:1] B,3/C/ C/B,/A,/G,/ | 
[V:2] G,,2G,,2 | 
[V:1] F,2F,/E,3/ ||  
[V:2] z4 ||  
[V:1] [M:3/4]E,6 ||  
[V:2] [M:3/4]z6 ||  
[V:1] [M:2/4]C/B,3/ C/B,3/ ||  
[V:2] [M:2/4]z4 ||  
[V:1] [M:3/4]B,4(3CB,B, | 
[V:2] [M:3/4]z6 | 
[V:1] F,3/G,/ (3G,F,E,-E,2 | 
[V:2] z6 | 
[V:1] G,/E,3/ (3G,E,E,-E,2 | 
[V:2] z6 | 
[V:1] G,/E,3/ C,3/E,/ (3E,C,C, ||  
[V:2] z6 ||  
[V:1] [M:2/4]B,,2CC | 
[V:2] [M:2/4]z4 | 
[V:1] C/B,C/ C/B,/A,/G,/ | 
[V:2] z4 | 
[V:1] F,2F,/E,3/ | 
[V:2] z4 | 
[V:1] E,4 ||  
[V:2] z4 ||  
[V:1] [M:3/4]G,/E,3/ (3G,E,E,E,2 | 
[V:2] [M:3/4]z6 | 
[V:1] G,E, C,3/E,/ (3E,C,C, ||  
[V:2] z6 ||  
[V:1] [M:2/4]B,,2B,,B,, | 
[V:2] [M:2/4]z4 | 
[V:1] B,,2z2 |]  
[V:2] z4 |]  



